icons/reasonml.svg

<svg height="32" viewBox="0 0 32 32" width="32" xmlns="http://www.w3.org/2000/svg"><path d="m6 6h20v20h-20zm7.002 12.177v2.349h1.453c.808 0 1.278-.415 1.278-1.191 0-.754-.47-1.158-1.278-1.158zm5.911-1.595h6.042v1.595h-4.043v1.431h3.649v1.584l-3.649.011v1.443h4.152v1.595h-6.151zm-1.049 7.659h-2.262l-1.114-2.12h-1.486v2.12h-2v-7.659h3.442c2.032 0 3.19.983 3.19 2.687 0 1.159-.48 2.011-1.365 2.47z" fill-rule="evenodd"/></svg>

<?xml version="1.0" standalone="no"?><!-- Generator: Gravit.io --><svg xmlns="http://www.w3.org/2000/svg" xmlns:xlink="http://www.w3.org/1999/xlink" style="isolation:isolate" viewBox="0 0 32 32" width="32" height="32"><path d=" M 6 6 L 26 6 L 26 26 L 6 26 L 6 6 Z  M 13.002 18.177 L 13.002 20.526 L 14.455 20.526 C 15.263 20.526 15.733 20.111 15.733 19.335 C 15.733 18.581 15.263 18.177 14.455 18.177 L 13.002 18.177 L 13.002 18.177 L 13.002 18.177 Z  M 18.913 16.582 L 24.955 16.582 L 24.955 18.177 L 20.912 18.177 L 20.912 19.608 L 24.561 19.608 L 24.561 21.192 L 20.912 21.203 L 20.912 22.646 L 25.064 22.646 L 25.064 24.241 L 18.913 24.241 L 18.913 16.582 L 18.913 16.582 L 18.913 16.582 Z  M 17.864 24.241 L 15.602 24.241 L 14.488 22.121 L 13.002 22.121 L 13.002 24.241 L 11.002 24.241 L 11.002 16.582 L 14.444 16.582 C 16.476 16.582 17.634 17.565 17.634 19.269 C 17.634 20.428 17.154 21.28 16.269 21.739 L 17.864 24.241 L 17.864 24.241 L 17.864 24.241 Z " fill-rule="evenodd" fill="rgb(0,0,0)"/></svg>
